X:1
T:Title
%%score { 1 | ( 2 3 ) }
L:1/8
Q:1/4=110
M:4/4
K:C
V:1 treble nm="Grand Piano"
V:2 bass 
V:3 bass 
V:1
 [EG]2 [EG][EG] [Ec]3 [GB] | [FA]2 [Fc]2 [CEG]4 | [G,B,DF]2 [G,B,DF][G,B,DF] [G,B,DF]3 [G,B,DF] | %3
w: Wm.~J.~Kirkpatrick * * * *|||
 [B,FA]2 [B,DG]2 [G,CE]4 | [Ec]2 [Ec][Ec] [Ec]3 [EB] | [Fd]2 [Ec]2 [EG]3 [EG] | A2 A2 B2 AB | %7
w: ||||
 [Ec]6 z2 | [Ec]3 [Ec] [Fd][Ec][GB][FA] | [EG]4 [G,CE]4 | [CEG]2 [B,DF]2 [B,DF]4 | %11
w: ||||
 [FA]2 [EG]2 [EG]4 | [Ec]3 [Ec] [Fd][Ec][GB][FA] | [EG]4 [Ec]4 | d2 d2 c2 B2 | [Ec]6 z2 |] %16
w: |||||
V:2
 [C,C]2 [C,C][C,C] [C,G,]3 [C,G,] | [C,A,]2 [C,A,]2 C,4 | G,,2 G,,G,, G,,3 G,, | G,,2 G,,2 C,4 | %4
 [C,G,]2 [C,G,][C,G,] [C,G,]3 [C,G,] | [C,G,]2 [C,G,]2 [C,C]3 [C,C] | z4 z2 F2 | [C,G,]6 z2 | %8
 [C,G,]3 [C,G,] [C,G,][C,G,][C,G,][C,C] | [C,C]4 C,4 | G,,2 G,,2 G,,4 | [C,C]2 [C,C]2 [C,C]4 | %12
 [C,G,]3 [C,G,] [C,G,][C,G,][C,G,][C,C] | [C,C]4 [C,G,]4 | [F,A,F]2 [F,A,F]2 [G,E]2 [G,D]2 | %15
 [C,G,]6 z2 |] %16
V:3
 x8 | x8 | x8 | x8 | x8 | x8 | [F,CF]2 [F,CF]2 [G,F]2 G,G, | x8 | x8 | x8 | x8 | x8 | x8 | x8 | %14
 x8 | x8 |] %16

